X: 103102
Q:"Reel time." 1/2=120
M: C
L: 1/8
K: D
|:\
d2(df) edcB | ABcd efge |
d2(df) edcB | AFDF E2D2 |\
d2(df) edcB | ABcd efge |\
afdf edcB | AFDF E2D2 |]


